fr/img/forest.svg

<svg width="1141" height="103" viewBox="0 0 1141 103" fill="none" xmlns="http://www.w3.org/2000/svg">
<g opacity="0.5">
<path d="M10.7558 10.8767L10.7558 50.2324L63.3717 50.2324L63.3717 59.3915L10.7558 59.3915L10.7558 101.896H0L0 1.71757L69.7671 1.71757V10.8767L10.7558 10.8767Z" fill="#F5F2F2"/>
<path d="M135.177 102.754C125.1 102.754 115.943 100.56 107.706 96.1712C99.5668 91.687 93.1715 85.5809 88.5204 77.8529C83.9661 70.1249 81.689 61.4428 81.689 51.8066C81.689 42.1704 83.9661 33.4883 88.5204 25.7603C93.1715 18.0323 99.5668 11.9739 107.706 7.58514C115.943 3.10098 125.1 0.858902 135.177 0.858902C145.255 0.858902 154.315 3.05328 162.357 7.44203C170.497 11.8308 176.892 17.9369 181.543 25.7603C186.194 33.4883 188.52 42.1704 188.52 51.8066C188.52 61.4428 186.194 70.1726 181.543 77.996C176.892 85.724 170.497 91.7824 162.357 96.1712C154.315 100.56 145.255 102.754 135.177 102.754ZM135.177 93.3089C143.22 93.3089 150.487 91.5439 156.979 88.0138C163.471 84.3883 168.559 79.4271 172.241 73.1302C175.923 66.7379 177.764 59.63 177.764 51.8066C177.764 43.9832 175.923 36.923 172.241 30.6261C168.559 24.2338 163.471 19.2726 156.979 15.7425C150.487 12.117 143.22 10.3043 135.177 10.3043C127.134 10.3043 119.819 12.117 113.23 15.7425C106.737 19.2726 101.602 24.2338 97.8226 30.6261C94.1405 36.923 92.2994 43.9832 92.2994 51.8066C92.2994 59.63 94.1405 66.7379 97.8226 73.1302C101.602 79.4271 106.737 84.3883 113.23 88.0138C119.819 91.5439 127.134 93.3089 135.177 93.3089Z" fill="#F5F2F2"/>
<path d="M282.105 101.896L258.849 69.6955C256.233 69.9818 253.52 70.1249 250.709 70.1249H223.384V101.896H212.628V1.71757L250.709 1.71757C263.694 1.71757 273.868 4.77061 281.233 10.8767C288.597 16.9828 292.279 25.3787 292.279 36.0643C292.279 43.8878 290.244 50.5186 286.174 55.9568C282.202 61.2996 276.485 65.1637 269.023 67.5489L293.878 101.896H282.105ZM250.419 61.1088C260.496 61.1088 268.2 58.9145 273.529 54.5257C278.859 50.137 281.523 43.9832 281.523 36.0643C281.523 27.9547 278.859 21.7532 273.529 17.4598C268.2 13.0711 260.496 10.8767 250.419 10.8767L223.384 10.8767V61.1088H250.419Z" fill="#F5F2F2"/>
<path d="M389.612 92.7365V101.896L317.665 101.896V1.71757L387.432 1.71757V10.8767L328.421 10.8767V46.5115H381.037V55.5275H328.421V92.7365L389.612 92.7365Z" fill="#F5F2F2"/>
<path d="M442.947 102.754C435.389 102.754 428.121 101.562 421.145 99.1765C414.265 96.7913 408.936 93.6428 405.156 89.7311L409.372 81.5738C413.054 85.1993 417.947 88.1569 424.052 90.4467C430.156 92.6411 436.455 93.7383 442.947 93.7383C452.055 93.7383 458.887 92.1163 463.441 88.8725C467.995 85.5332 470.272 81.2399 470.272 75.9924C470.272 71.9853 469.013 68.7892 466.493 66.404C464.071 64.0188 461.067 62.206 457.482 60.9657C453.897 59.63 448.906 58.1989 442.511 56.6724C434.856 54.7642 428.751 52.9515 424.197 51.2341C419.643 49.4214 415.718 46.7023 412.424 43.0768C409.226 39.4513 407.627 34.5378 407.627 28.3363C407.627 23.2797 408.984 18.7001 411.697 14.5976C414.41 10.3997 418.577 7.0604 424.197 4.5798C429.817 2.0992 436.794 0.858902 445.127 0.858902C450.941 0.858902 456.61 1.66987 462.133 3.2918C467.753 4.81832 472.598 6.96499 476.668 9.73181L473.034 18.1754C468.77 15.4086 464.216 13.3573 459.371 12.0216C454.526 10.5905 449.778 9.87493 445.127 9.87493C436.213 9.87493 429.478 11.5923 424.924 15.0269C420.466 18.3662 418.238 22.7073 418.238 28.0501C418.238 32.0572 419.449 35.3011 421.872 37.7817C424.391 40.1669 427.492 42.0273 431.174 43.363C434.953 44.6033 439.992 45.9867 446.29 47.5132C453.751 49.326 459.759 51.1387 464.313 52.9515C468.964 54.6688 472.889 57.3402 476.086 60.9657C479.284 64.4958 480.883 69.3139 480.883 75.42C480.883 80.4766 479.478 85.1039 476.668 89.3018C473.955 93.4043 469.739 96.6959 464.022 99.1765C458.305 101.562 451.28 102.754 442.947 102.754Z" fill="#F5F2F2"/>
<path d="M522.666 10.8767L486.91 10.8767V1.71757L569.177 1.71757V10.8767L533.422 10.8767V101.896H522.666V10.8767Z" fill="#F5F2F2"/>
<path d="M693.877 101.896L670.621 69.6955C668.005 69.9818 665.292 70.1249 662.482 70.1249H635.156V101.896H624.4V1.71757L662.482 1.71757C675.466 1.71757 685.64 4.77061 693.005 10.8767C700.369 16.9828 704.051 25.3787 704.051 36.0643C704.051 43.8878 702.016 50.5186 697.946 55.9568C693.974 61.2996 688.257 65.1637 680.795 67.5489L705.65 101.896H693.877ZM662.191 61.1088C672.268 61.1088 679.972 58.9145 685.301 54.5257C690.631 50.137 693.295 43.9832 693.295 36.0643C693.295 27.9547 690.631 21.7532 685.301 17.4598C679.972 13.0711 672.268 10.8767 662.191 10.8767L635.156 10.8767V61.1088L662.191 61.1088Z" fill="#F5F2F2"/>
<path d="M729.437 1.71757L740.193 1.71757V101.896H729.437V1.71757Z" fill="#F5F2F2"/>
<path d="M856.754 1.71757L811.696 101.896H801.086L756.028 1.71757L767.656 1.71757L806.609 88.7294L845.853 1.71757L856.754 1.71757Z" fill="#F5F2F2"/>
<path d="M943.468 92.7365V101.896H871.52V1.71757L941.287 1.71757V10.8767L882.276 10.8767V46.5115H934.892V55.5275H882.276V92.7365H943.468Z" fill="#F5F2F2"/>
<path d="M1038.23 101.896L1014.97 69.6955C1012.35 69.9818 1009.64 70.1249 1006.83 70.1249H979.506V101.896H968.75V1.71757L1006.83 1.71757C1019.82 1.71757 1029.99 4.77061 1037.35 10.8767C1044.72 16.9828 1048.4 25.3787 1048.4 36.0643C1048.4 43.8878 1046.37 50.5186 1042.3 55.9568C1038.32 61.2996 1032.61 65.1637 1025.15 67.5489L1050 101.896L1038.23 101.896ZM1006.54 61.1088C1016.62 61.1088 1024.32 58.9145 1029.65 54.5257C1034.98 50.137 1037.65 43.9832 1037.65 36.0643C1037.65 27.9547 1034.98 21.7532 1029.65 17.4598C1024.32 13.0711 1016.62 10.8767 1006.54 10.8767L979.506 10.8767V61.1088L1006.54 61.1088Z" fill="#F5F2F2"/>
<path d="M1103.06 101.895C1095.51 101.895 1088.24 100.703 1081.26 98.3176C1074.38 95.9324 1069.05 92.7839 1065.27 88.8722L1069.49 80.7149C1073.17 84.3404 1078.06 87.298 1084.17 89.5878C1090.27 91.7822 1096.57 92.8794 1103.06 92.8794C1112.17 92.8794 1119 91.2574 1123.56 88.0136C1128.11 84.6743 1130.39 80.381 1130.39 75.1335C1130.39 71.1264 1129.13 67.9303 1126.61 65.5451C1124.19 63.1599 1121.18 61.3471 1117.6 60.1068C1114.01 58.7711 1109.02 57.34 1102.63 55.8135C1094.97 53.9053 1088.87 52.0926 1084.31 50.3752C1079.76 48.5625 1075.84 45.8434 1072.54 42.2179C1069.34 38.5924 1067.74 33.6789 1067.74 27.4774C1067.74 22.4208 1069.1 17.8412 1071.81 13.7387C1074.53 9.54076 1078.69 6.2015 1084.31 3.7209C1089.93 1.2403 1096.91 0 1105.24 0C1111.06 0 1116.73 0.810966 1122.25 2.4329C1127.87 3.95942 1132.72 6.10609 1136.78 8.87291L1133.15 17.3165C1128.89 14.5497 1124.33 12.4984 1119.49 11.1627C1114.64 9.73158 1109.9 9.01603 1105.24 9.01603C1096.33 9.01603 1089.6 10.7334 1085.04 14.168C1080.58 17.5073 1078.35 21.8484 1078.35 27.1912C1078.35 31.1983 1079.57 34.4422 1081.99 36.9228C1084.51 39.308 1087.61 41.1684 1091.29 42.5041C1095.07 43.7444 1100.11 45.1278 1106.41 46.6543C1113.87 48.4671 1119.88 50.2798 1124.43 52.0926C1129.08 53.8099 1133.01 56.4813 1136.2 60.1068C1139.4 63.6369 1141 68.455 1141 74.5611C1141 79.6177 1139.59 84.245 1136.78 88.4429C1134.07 92.5454 1129.86 95.837 1124.14 98.3176C1118.42 100.703 1111.4 101.895 1103.06 101.895Z" fill="#F5F2F2"/>
</g>
</svg>

<svg width="1141" height="103" fill="none" xmlns="http://www.w3.org/2000/svg"><path d="M10.756 10.877v39.355h52.616v9.16H10.756v42.504H0V1.718h69.767v9.159H10.756zm124.421 91.877c-10.077 0-19.234-2.194-27.471-6.583-8.14-4.484-14.535-10.59-19.186-18.318-4.554-7.728-6.831-16.41-6.831-26.046 0-9.637 2.277-18.319 6.831-26.047 4.651-7.728 11.047-13.786 19.186-18.175C115.943 3.101 125.1.86 135.177.86c10.078 0 19.138 2.194 27.18 6.583 8.14 4.389 14.535 10.495 19.186 18.318 4.651 7.728 6.977 16.41 6.977 26.047 0 9.636-2.326 18.366-6.977 26.189-4.651 7.728-11.046 13.786-19.186 18.175-8.042 4.389-17.102 6.583-27.18 6.583zm0-9.445c8.043 0 15.31-1.765 21.802-5.295 6.492-3.626 11.58-8.587 15.262-14.884 3.682-6.392 5.523-13.5 5.523-21.323 0-7.824-1.841-14.884-5.523-21.18-3.682-6.393-8.77-11.354-15.262-14.884-6.492-3.626-13.759-5.439-21.802-5.439s-15.358 1.813-21.947 5.438c-6.493 3.53-11.628 8.492-15.407 14.884-3.682 6.297-5.524 13.357-5.524 21.18 0 7.824 1.841 14.932 5.524 21.324 3.779 6.297 8.914 11.258 15.407 14.884 6.589 3.53 13.904 5.295 21.947 5.295zm146.928 8.587l-23.256-32.2a74.893 74.893 0 01-8.14.429h-27.325v31.771h-10.756V1.718h38.081c12.985 0 23.159 3.053 30.524 9.159 7.364 6.106 11.046 14.502 11.046 25.187 0 7.824-2.035 14.455-6.105 19.893-3.972 5.343-9.689 9.207-17.151 11.592l24.855 34.347h-11.773zm-31.686-40.787c10.077 0 17.781-2.195 23.11-6.583 5.33-4.389 7.994-10.543 7.994-18.462 0-8.11-2.664-14.31-7.994-18.604-5.329-4.389-13.033-6.583-23.11-6.583h-27.035v50.232h27.035zm139.193 31.628v9.159h-71.947V1.718h69.767v9.159h-59.011V46.51h52.616v9.017h-52.616v37.209h61.191zm53.335 10.017c-7.558 0-14.826-1.192-21.802-3.578-6.88-2.385-12.209-5.533-15.989-9.445l4.216-8.157c3.682 3.625 8.575 6.583 14.68 8.873a55.442 55.442 0 0018.895 3.291c9.108 0 15.94-1.622 20.494-4.865 4.554-3.34 6.831-7.633 6.831-12.88 0-4.008-1.259-7.204-3.779-9.589-2.422-2.385-5.426-4.198-9.011-5.438-3.585-1.336-8.576-2.767-14.971-4.294-7.655-1.908-13.76-3.72-18.314-5.438a31.388 31.388 0 01-11.773-8.157c-3.198-3.626-4.797-8.54-4.797-14.74 0-5.057 1.357-9.637 4.07-13.74 2.713-4.197 6.88-7.537 12.5-10.017 5.62-2.48 12.597-3.721 20.93-3.721 5.814 0 11.483.81 17.006 2.433 5.62 1.526 10.465 3.673 14.535 6.44l-3.634 8.443a48.783 48.783 0 00-13.663-6.153c-4.845-1.431-9.593-2.147-14.244-2.147-8.914 0-15.649 1.717-20.203 5.152-4.458 3.34-6.686 7.68-6.686 13.023 0 4.007 1.211 7.251 3.634 9.732 2.519 2.385 5.62 4.245 9.302 5.581 3.779 1.24 8.818 2.624 15.116 4.15 7.461 1.813 13.469 3.626 18.023 5.439 4.651 1.717 8.576 4.388 11.773 8.014 3.198 3.53 4.797 8.348 4.797 14.454 0 5.057-1.405 9.684-4.215 13.882-2.713 4.102-6.929 7.394-12.646 9.874-5.717 2.386-12.742 3.578-21.075 3.578zm79.719-91.877H486.91v-9.16h82.267v9.16h-35.755v91.019h-10.756v-91.02zm171.211 91.019l-23.256-32.2a74.81 74.81 0 01-8.139.429h-27.326v31.771H624.4V1.718h38.082c12.984 0 23.158 3.053 30.523 9.159 7.364 6.106 11.046 14.502 11.046 25.187 0 7.824-2.035 14.455-6.105 19.893-3.972 5.343-9.689 9.207-17.151 11.592l24.855 34.347h-11.773zm-31.686-40.787c10.077 0 17.781-2.195 23.11-6.583 5.33-4.389 7.994-10.543 7.994-18.462 0-8.11-2.664-14.31-7.994-18.604-5.329-4.389-13.033-6.583-23.11-6.583h-27.035v50.232h27.035zm67.246-59.391h10.756v100.178h-10.756V1.718zm127.317 0l-45.058 100.178h-10.61L756.028 1.718h11.628l38.953 87.011 39.244-87.011h10.901zm86.714 91.019v9.159H871.52V1.718h69.767v9.159h-59.011V46.51h52.616v9.017h-52.616v37.209h61.192zm94.762 9.159l-23.26-32.2a74.96 74.96 0 01-8.14.429h-27.324v31.771H968.75V1.718h38.08c12.99 0 23.16 3.053 30.52 9.159 7.37 6.106 11.05 14.502 11.05 25.187 0 7.824-2.03 14.455-6.1 19.893-3.98 5.343-9.69 9.207-17.15 11.592l24.85 34.347h-11.77zm-31.69-40.787c10.08 0 17.78-2.195 23.11-6.583 5.33-4.389 8-10.543 8-18.462 0-8.11-2.67-14.31-8-18.604-5.33-4.389-13.03-6.583-23.11-6.583h-27.034v50.232h27.034zm96.52 40.786c-7.55 0-14.82-1.192-21.8-3.577-6.88-2.386-12.21-5.534-15.99-9.446l4.22-8.157c3.68 3.625 8.57 6.583 14.68 8.873a55.406 55.406 0 0018.89 3.291c9.11 0 15.94-1.622 20.5-4.865 4.55-3.34 6.83-7.633 6.83-12.88 0-4.008-1.26-7.204-3.78-9.589-2.42-2.385-5.43-4.198-9.01-5.438-3.59-1.336-8.58-2.767-14.97-4.294-7.66-1.908-13.76-3.72-18.32-5.438a31.465 31.465 0 01-11.77-8.157c-3.2-3.626-4.8-8.54-4.8-14.74 0-5.057 1.36-9.637 4.07-13.74 2.72-4.197 6.88-7.536 12.5-10.017 5.62-2.48 12.6-3.721 20.93-3.721 5.82 0 11.49.811 17.01 2.433 5.62 1.526 10.47 3.673 14.53 6.44l-3.63 8.444a48.779 48.779 0 00-13.66-6.154c-4.85-1.431-9.59-2.147-14.25-2.147-8.91 0-15.64 1.717-20.2 5.152-4.46 3.34-6.69 7.68-6.69 13.023 0 4.007 1.22 7.251 3.64 9.732 2.52 2.385 5.62 4.245 9.3 5.581 3.78 1.24 8.82 2.624 15.12 4.15 7.46 1.813 13.47 3.626 18.02 5.439 4.65 1.717 8.58 4.388 11.77 8.014 3.2 3.53 4.8 8.348 4.8 14.454 0 5.057-1.41 9.684-4.22 13.882-2.71 4.102-6.92 7.394-12.64 9.875-5.72 2.385-12.74 3.577-21.08 3.577z" opacity=".5" fill="#F5F2F2"/></svg>
